X: 22310
T: La Russe
R: polka
M: 2/4
K: Gmajor
|:B/A/|G>B Bd|dg gf/g/|ag ec|ed d/c/B/A/|
GB Bd|dg g2|ed dF|AG G:|
|:A|Ad dc/B/|Aa af|g>f ge|f/g/a/g/ fA/A/|
Ad/d/ dB/B/|Aa/a/ a>f|g>f ge|d3:|

